assets/security-color/SecurityColor15.svg

<svg xmlns="http://www.w3.org/2000/svg" data-name="Layer 3" viewBox="0 0 128 128"><path fill="#fbca11" d="M44.023 56.034h43.186v38.511a9.2 9.2 0 01-9.168 9.169H40.447a9.2 9.2 0 01-9.171-9.169V68.781"/><circle cx="59.244" cy="74.373" r="7.734" fill="#fdfdfd"/><circle cx="31.277" cy="56.034" r="12.745" fill="#64c9eb"/><path fill="#231f20" d="M92.726 22.673c-10.121 0-18.354 7.87-18.354 17.545v14.2H45.539A14.355 14.355 0 1029.663 70.3v24.245a10.8 10.8 0 0010.784 10.782h37.594a10.794 10.794 0 0010.781-10.782V56.034a1.612 1.612 0 00-1.613-1.613H77.6v-14.2c0-7.895 6.786-14.319 15.128-14.319s15.128 6.424 15.128 14.319v15.813a1.613 1.613 0 003.226 0V40.217c-.002-9.675-8.236-17.544-18.356-17.544zm-72.58 33.361a11.124 11.124 0 0119.788-6.984 1.51 1.51 0 00-.184.1l-10.71 9.093-3.614-5.257a1.613 1.613 0 00-2.659 1.827l4.625 6.728a1.615 1.615 0 002.374.317L41.58 51.83a11.13 11.13 0 11-21.434 4.2zM85.6 94.545a7.564 7.564 0 01-7.555 7.556H40.447a7.565 7.565 0 01-7.558-7.556V70.3a14.378 14.378 0 0012.65-12.648H85.6z"/><path fill="#231f20" d="M59.243 65.424a8.945 8.945 0 00-1.613 17.744v8.627a1.613 1.613 0 103.226 0v-8.627a8.945 8.945 0 00-1.613-17.744zm0 14.672a5.723 5.723 0 115.724-5.723 5.728 5.728 0 01-5.724 5.727z"/></svg>

<svg id="Layer_3" data-name="Layer 3" xmlns="http://www.w3.org/2000/svg" viewBox="0 0 128 128"><title>Artboard 111</title><path d="M44.023,56.034H87.209V94.545a9.2,9.2,0,0,1-9.168,9.169H40.447a9.2,9.2,0,0,1-9.171-9.169V68.781" style="fill:#fbca11"/><circle cx="59.244" cy="74.373" r="7.734" style="fill:#fdfdfd"/><circle cx="31.277" cy="56.034" r="12.745" style="fill:#64c9eb"/><path d="M92.726,22.673c-10.121,0-18.354,7.87-18.354,17.545v14.2H45.539A14.355,14.355,0,1,0,29.663,70.3V94.545a10.8,10.8,0,0,0,10.784,10.782H78.041A10.794,10.794,0,0,0,88.822,94.545V56.034a1.612,1.612,0,0,0-1.613-1.613H77.6v-14.2c0-7.895,6.786-14.319,15.128-14.319s15.128,6.424,15.128,14.319V56.034a1.613,1.613,0,0,0,3.226,0V40.217C111.08,30.542,102.846,22.673,92.726,22.673ZM20.146,56.034A11.124,11.124,0,0,1,39.934,49.05a1.51,1.51,0,0,0-.184.1L29.04,58.243l-3.614-5.257a1.613,1.613,0,0,0-2.659,1.827l4.625,6.728a1.615,1.615,0,0,0,2.374.317L41.58,51.83a11.13,11.13,0,1,1-21.434,4.2ZM85.6,94.545a7.564,7.564,0,0,1-7.555,7.556H40.447a7.565,7.565,0,0,1-7.558-7.556V70.3a14.378,14.378,0,0,0,12.65-12.648H85.6Z" style="fill:#231f20"/><path d="M59.243,65.424A8.945,8.945,0,0,0,57.63,83.168v8.627a1.613,1.613,0,1,0,3.226,0V83.168a8.945,8.945,0,0,0-1.613-17.744Zm0,14.672a5.723,5.723,0,1,1,5.724-5.723A5.728,5.728,0,0,1,59.243,80.1Z" style="fill:#231f20"/></svg>
